X: 201578
T: Tommy Cowley's
T: Port Thom\'ais Mhic Amhala\'i
S: B.Breathnach:"Ceol Rince na hEireann" III/3 
Z: B.Black
L: 1/8
M: 6/8
R: jig
K: G
D|GBB BAB|GBB BAG|FAA A2D|FAA A2D|
GBB BAB|GBB BAB|def gdc|BGG G2 :|
d|aba afd|gag gfe|d3 gdB|BAA A2d|
aba afd|gag gfe|d3 gdc|BGG G2 :|
